!!!OTL: ACH WENN DU WAERST MEIN EIGEN
!!!ARE: Europa, Mitteleuropa, Deutschland
!!!SCT: B0388
!!!YEM: Copyright 1995, estate of Helmut Schaffrath.
**kern
*ICvox
*Ivox
*M4/4
*k[f#]
*G:
{4d
=1
4b
4b
4b
8cc
8b
=2
2a
4e}
{4e
=3
4d
8c#
8d
4b
4a
=4
2g
4r}
{4d
=5
4b
4b
4b
8cc
8b
=6
2a
4e}
{4e
=7
4d
8c#
8d
4b
4a
=8
2g
4r}
{4b
=9
4.b
8a
4g
4f#
=10
4f#
8g#
8a#
4b}
{4b
=11
4.cc#
8b
4a
4a
=12
4.b
8a
4f#}
{4a
=13
4.a
8g
4f#
4f#
=14
2a
4g}
{4e
=15
4d
8c#
8d
4b
4a
=16
2g
4r}
==
!!!AGN: Liebes - Lied, Liebes - Lust
!!!ONB: ESAC (Essen Associative Code) Database: BOEHME
!!!AMT: simple quadruple
!!!AIN: vox
!!!EED: Helmut Schaffrath
!!!EEV: 1.0
*-
